X: 3237
T: AIR FROM "LA SOMNAMBULA."
%R: jig, air
B: James Kerr "Merry Melodies" v.3 p.27 #237
Z: 2016 John Chambers <jc:trillian.mit.edu>
M: 6/8
L: 1/8
K: G
de |\
dcB d2e | dcB d2c | B2B BAB | cAA Ade |\
dcB d2e | dcB d2c | B2B cAA | AGG G  :|
|: DD |\
DFA c2e | edc B2d | dcB A2c | cBA G2D |\
DFA c2e | edc B2d | dcB A2B | G3- G  :|

%%sep 1 1 500
%%sep 1 1 500

